X: 1
T: Morning Dew, The
Z: ceolachan
S: https://thesession.org/tunes/69#setting12528
R: reel
M: 4/4
L: 1/8
K: Edor
~E3 B BAFA|EBEB AGFG|~E3 B BAFA|1 BddB AGFD:|2 BddB AGFA||
B2 eB fBeB|~B2 dB ADFA|B2 eB fBeB|dcdB ADFA|
B2 eB fBeB|FBBG ADFA|B/c/d eg fAec|dcdB ADFA||
BEGF EFGA|BEGB ADFA|BEGF EFGA|BddB ADFA|
BEGF EFGA|BEGB ADFA|~B2 GB EBGB|BAdB AGFD||

